public/topics/21.svg

<svg width="250" height="250" viewBox="0 0 250 250" fill="none" xmlns="http://www.w3.org/2000/svg">
<rect width="250" height="250" rx="30" fill="#003399"/>
<path d="M64.2 174.2C68.7333 174.467 71.7333 174.6 73.2 174.6C77.7333 174.6 81.7333 174.533 85.2 174.4C88.8 174.267 91.8667 174.133 94.4 174C100.933 173.6 106.8 173.4 112 173.4C117.067 173.4 120.8 174.733 123.2 177.4C125.6 180.067 126.8 183.6 126.8 188C126.8 190.133 125.4 191.867 122.6 193.2C119.8 194.4 116.933 195 114 195C111.467 195 106.2 194.733 98.2 194.2C88.6 193.4 81.0667 193 75.6 193C72.6667 193 69.2 193.2 65.2 193.6C63.6 193.733 61.6667 193.867 59.4 194C57.1333 194.133 54.6 194.2 51.8 194.2C46.4667 194.2 42.4 193.467 39.6 192C36.8 190.533 35.4 187.867 35.4 184C35.4 180.667 36.7333 177.267 39.4 173.8C42.0667 170.333 45.8 166.2 50.6 161.4L55.4 156.6C57.5333 154.333 61.4667 150.467 67.2 145C76.6667 136.467 84 128.933 89.2 122.4C94.5333 115.867 97.2 109.4 97.2 103C97.2 98.8667 95.2 95.5333 91.2 93C87.3333 90.3333 82.8667 89 77.8 89C70.0667 89 64.4667 90.7333 61 94.2C57.6667 97.5333 56 102.4 56 108.8C56 110.4 55.0667 111.867 53.2 113.2C51.4667 114.4 49.2667 115 46.6 115C42.8667 115 40.2667 113.667 38.8 111C37.3333 108.333 36.6 105.067 36.6 101.2C36.6 95.0667 38.4667 89.6667 42.2 85C45.9333 80.2 51 76.4667 57.4 73.8C63.9333 71.1333 71.1333 69.8 79 69.8C84.6 69.8 90.4 71.2 96.4 74C102.533 76.6667 107.6 80.3333 111.6 85C115.733 89.5333 117.8 94.5333 117.8 100C117.8 108.267 115.733 116.133 111.6 123.6C107.467 131.067 102.6 137.733 97 143.6C91.5333 149.333 84.4 156.133 75.6 164C71.3333 167.6 67.5333 171 64.2 174.2ZM193.873 89.8C192.54 115.933 191.873 136.733 191.873 152.2C191.873 160.2 192.073 167.8 192.473 175C193.54 175.8 195.607 176.2 198.673 176.2L203.273 176C205.14 175.733 206.873 175.6 208.473 175.6C211.94 175.6 214.607 176.2 216.473 177.4C218.473 178.6 219.473 180.933 219.473 184.4C219.473 187.733 218.473 190.333 216.473 192.2C214.607 194.067 210.673 195 204.673 195C199.607 195 193.473 194.6 186.273 193.8C184.54 193.667 182.873 193.533 181.273 193.4C179.673 193.267 178.207 193.2 176.873 193.2C169.54 193.333 164.073 193.6 160.473 194C156.873 194.4 152.807 194.6 148.273 194.6C144.14 194.6 142.073 191.467 142.073 185.2C142.073 179.2 145.94 176.2 153.673 176.2C154.873 176.2 156.807 176.333 159.473 176.6C161.74 177 164.14 177.2 166.673 177.2C168.14 177.2 169.34 177.133 170.273 177C170.407 168.067 170.873 155.067 171.673 138C172.473 118 172.873 103.2 172.873 93.6C172.207 93.7333 169.873 94.6667 165.873 96.4C159.74 99.4667 155.207 101 152.273 101C150.673 101 149.207 100.2 147.873 98.6C146.54 96.8667 145.873 94.8667 145.873 92.6C145.873 90.3333 147.273 88.1333 150.073 86C152.873 83.8667 157.407 81.0667 163.673 77.6C167.14 75.8667 170.473 73.9333 173.673 71.8C174.473 71.2667 175.607 70.7333 177.073 70.2C178.673 69.6667 179.873 69.4 180.673 69.4C184.14 69.4 187.273 70.1333 190.073 71.6C193.007 72.9333 194.473 74.7333 194.473 77L193.873 89.8Z" fill="white"/>
</svg>

<svg xmlns="http://www.w3.org/2000/svg" width="250" height="250" fill="none" viewBox="0 0 250 250"><rect width="250" height="250" fill="#039" rx="30"/><path fill="#fff" d="M64.2 174.2q6.8.4 9 .4 6.8 0 12-.2 5.4-.2 9.2-.4 9.8-.6 17.6-.6 7.6 0 11.2 4t3.6 10.6q0 3.2-4.2 5.2-4.2 1.8-8.6 1.8-3.8 0-15.8-.8-14.4-1.2-22.6-1.2-4.4 0-10.4.6-2.4.2-5.8.4t-7.6.2q-8 0-12.2-2.2t-4.2-8q0-5 4-10.2t11.2-12.4l4.8-4.8q3.2-3.4 11.8-11.6 14.2-12.8 22-22.6 8-9.8 8-19.4 0-6.2-6-10-5.8-4-13.4-4-11.6 0-16.8 5.2-5 5-5 14.6 0 2.4-2.8 4.4-2.6 1.8-6.6 1.8-5.6 0-7.8-4t-2.2-9.8q0-9.2 5.6-16.2 5.6-7.2 15.2-11.2 9.8-4 21.6-4 8.4 0 17.4 4.2 9.2 4 15.2 11 6.2 6.8 6.2 15 0 12.4-6.2 23.6t-14.6 20q-8.2 8.6-21.4 20.4-6.4 5.4-11.4 10.2m129.673-84.4q-2 39.2-2 62.4 0 12 .6 22.8 1.6 1.2 6.2 1.2l4.6-.2q2.8-.4 5.2-.4 5.2 0 8 1.8 3 1.8 3 7 0 5-3 7.8-2.8 2.8-11.8 2.8-7.6 0-18.4-1.2a790 790 0 0 1-5-.4q-2.4-.2-4.4-.2-11 .2-16.4.8t-12.2.6q-6.2 0-6.2-9.4 0-9 11.6-9 1.8 0 5.8.4 3.4.6 7.2.6 2.2 0 3.6-.2.2-13.4 1.4-39 1.2-30 1.2-44.4-1 .2-7 2.8-9.2 4.6-13.6 4.6-2.4 0-4.4-2.4-2-2.6-2-6t4.2-6.6 13.6-8.4a93 93 0 0 0 10-5.8q1.2-.8 3.4-1.6 2.4-.8 3.6-.8 5.2 0 9.4 2.2 4.4 2 4.4 5.4z"/></svg>
